X:743
T:Reel 743
M:4/4
K:Dmaj
L:1/8
 (3ABc |d>D (3DDD F>D (3Acd |A>D (3DDD F2FA|B>E (3EDE G>F (3EFG |B>E (3GAE B2AG| (3FGF AD cDF>D (3DDD |ADD (3DDF A2Bc|d>D (3DDD FDEF|DDCE :||2F>D (3DCD f2d2|c>d (3dcd f>d (3dcd |B>d (3dcd f>d (3dcd |B>c (3EEE B>E (3EEE |B>E (3EEE B>E (3EEE | (3ABA dA dcd2d>D|A>D (3FEF d2cd|B>G (3EFE e>d (3cBc |dBAF DGFE|
